icon-themes/breeze_svg/cmd/lc_pagebreakmode.svg

<svg viewBox="0 0 24 24" xmlns="http://www.w3.org/2000/svg"><path d="m4 4v1 8h1v-2h4v2h1v-2h4v-1h-4v-2h4v-1h-4v-1-1h4v-1zm11 0v1h4v2h-3-1v1h4v2h-4v1h4v2h1v-8-1zm-10 1h4v1 1h-1-3zm0 3h3 1v2h-4zm-1 6v6h1 9v-1h-4v-2h4v-1h-4v-2h-1v2h-1-3v-2zm15 0v2h-4v1h4v2h-4v1h4 1v-6zm-14 3h3 1v1.099609.900391h-4z" fill="#4d4d4d"/><path d="m14 4v3h1v-3zm0 4v2h1v-2zm0 3v2h1v-2zm1 2v1h5v-1zm0 1h-1v2h1zm-1 0v-1h-4v1zm-10-1v1h5v-1zm10 4v3h1v-3z" fill="#1d99f3"/></svg>

<svg viewBox="0 0 24 24" xmlns="http://www.w3.org/2000/svg">
  <path
     style="fill:#4d4d4d"
     d="M 4 4 L 4 5 L 4 13 L 5 13 L 5 11 L 9 11 L 9 13 L 10 13 L 10 11 L 14 11 L 14 10 L 10 10 L 10 8 L 14 8 L 14 7 L 10 7 L 10 6 L 10 5 L 14 5 L 14 4 L 4 4 z M 15 4 L 15 5 L 19 5 L 19 7 L 16 7 L 15 7 L 15 8 L 19 8 L 19 10 L 15 10 L 15 11 L 19 11 L 19 13 L 20 13 L 20 5 L 20 4 L 15 4 z M 5 5 L 9 5 L 9 6 L 9 7 L 8 7 L 5 7 L 5 5 z M 5 8 L 8 8 L 9 8 L 9 10 L 5 10 L 5 8 z M 4 14 L 4 20 L 5 20 L 14 20 L 14 19 L 10 19 L 10 17 L 14 17 L 14 16 L 10 16 L 10 14 L 9 14 L 9 16 L 8 16 L 5 16 L 5 14 L 4 14 z M 19 14 L 19 16 L 15 16 L 15 17 L 19 17 L 19 19 L 15 19 L 15 20 L 19 20 L 20 20 L 20 14 L 19 14 z M 5 17 L 8 17 L 9 17 L 9 18.099609 L 9 19 L 5 19 L 5 17 z "
     />
  <path
     style="fill:#1d99f3"
     d="M 14 4 L 14 7 L 15 7 L 15 4 L 14 4 z M 14 8 L 14 10 L 15 10 L 15 8 L 14 8 z M 14 11 L 14 13 L 15 13 L 15 11 L 14 11 z M 15 13 L 15 14 L 20 14 L 20 13 L 15 13 z M 15 14 L 14 14 L 14 16 L 15 16 L 15 14 z M 14 14 L 14 13 L 10 13 L 10 14 L 14 14 z M 4 13 L 4 14 L 9 14 L 9 13 L 4 13 z M 14 17 L 14 20 L 15 20 L 15 17 L 14 17 z "
     />
</svg>
